X: 10134
M: 3/8
L: 1/16
K: F
(fc) |\
(FC)(GC)(AC) | Gcdefg |\
(af c2)c2 | (fc A2)A2 | (Gc)(=Bc)(_Bc) | F4 :: (AG) |\
c2c2 (d=B) | c2c2 (d=B) | (Af)(cA)(_BG) | F4 :|


